X: 17157
T: Hen Ferchetan
R: reel
M: 4/4
K: Dminor
|:d2 d2 A2 c2|=B=BAG A2 A2|DEFG A2 A2|AGFE D4:|
|:d2 de f2 d2|e2 c2 d2 d2|d2 de f2 d2|e2 c2 d4:|

